X:1
T:Praise Ye the Lord
T:William James Kirkpatrick
T:Praise Ye the Lord
T:Public Domain
T:Public Domain
T:Public Domain
C:William James Kirkpatrick
Z:Public Domain
%%score ( 1 2 ) ( 3 4 )
L:1/8
M:4/4
K:Bb
V:1 treble 
V:2 treble 
V:3 bass 
V:4 bass 
V:1
 [DF]2 [DF]>[DF] [DB]3 [FA] | [EG]>[FA] [GB]>[EG] [DF]2 D2 | [DB]2 [DB]>[DB] [DB]2 [DB]2 | %3
w: 1.~Praise ye the Lord, the|hope of our sal- va- tion;|ye the Lord, our soul’s|
w: 2.~Praise ye the Lord, Whose|throne is ev- er- last- ing;|ye the Lord, Whose gifts|
 [Fd]>[Ec] [DB]>[Fd] [Fc]4 | [Fd]2 [Fd]>[Fd] [Fd]3 [Ec] | [DB]>[Ec] [DB]>[EG] [DF]2 D2 | %6
w: a- bid- ing trust; Great|are His works and won-|der- ful His coun- sels; Praise|
w: are ev- er new; Praise|ye the Lord, Whose ten-|der mer- cy fall- eth Pure|
 [EG]2 [EG]>[EG] [DF]>[DF] [FB]>[Gc] | [Fd]2 [Ec]2 [DB]4 | [FA]2 [FA]>[FA] [FA]3 [CG] | %9
w: the Lord, the on- ly wise and|just. Praise ye|the Lord, our Strength and|
w: the rain and gen- tle as the|dew. Praise ye|the Lord, oh, glo- ry|
 [CF]>[CG] [FA]>[GB] [Ac]2 [FA]2 | [=EG]2 [EG]>[EG] [EG]3 [GB] | [FA]>[CG] [CF]>[CG] [FA]4 | %12
w: our Re- deem- er, Praise ye|the Lord, His might- y|love re- call, Tell how|
w: hal- le- lu- jah! Praise ye|the Lord, Whose king- dom|has no end; Praise ye|
 [FA]2 [FA]>[FA] [Fc]3 [Fc] | [FB]>[FA] [FB]>[Fc] [Fd]2 [FB]2 | [Fc]2 [=Ec]>[Ec] [Fc]>[FA] F>[FG] | %15
w: He came from bond- age|to de- liv- er, Tell how|He came to pur- chase life for|
w: the Lord, Who watch- eth|o’er the faith- ful, Praise ye|the Lord, our nev- er chang- ing|
 [FA]2 [EG]2 (F2 E2) |] %16
w: |
w: |
V:2
 x8 | x6 D2 | x8 | x8 | x8 | x6 D2 | x8 | x8 | x8 | x8 | x8 | x8 | x8 | x8 | x6 F3/2 x/ | x4 F4 |] %16
w: |Praise||||ye|||||||||all.||
w: |Praise||||as|||||||||Friend.||
V:3
 [B,,B,]2 [B,,B,]>[B,,B,] [B,,F,]3 [D,B,] | [E,B,]>[E,B,] [E,B,]>[E,B,] [B,,B,]2 [B,,B,]2 | %2
w: Refr.—Praise ye the Lord, for|good it is to praise Him;|
 [G,B,]2 [G,B,]>[G,B,] [G,B,]2 [G,B,]2 | [F,B,]>[F,B,] [F,B,]>[F,B,] [F,A,]4 | %4
w: O let the earth His|ma- jes- ty pro- claim;|
 [B,,B,]2 [B,,B,]>[B,,B,] [B,,B,]3 [B,,F,] | [B,,F,]>[B,,F,] [B,,F,]>[B,,B,] [B,,B,]2 [B,,B,]2 | %6
w: Shout, shout for joy and|bow the knee be- fore Him;|
 [E,B,]2 [E,B,]>[E,B,] [B,,B,]>[B,,B,] [D,B,]>[E,B,] | [F,B,]2 [F,A,]2 [B,,B,]4 | %8
w: Sing to the harp and mag- ni-|fy His Name.|
 [F,C]2 [F,C]>[F,C] [F,C]3 [F,B,] | [F,A,]>[F,B,] [F,C]>[F,C] [F,C]2 [F,C]2 | %10
w: ||
 [C,C]2 [C,C]>[C,C] [C,C]3 [C,C] | [F,C]>[F,B,] [F,A,]>[F,B,] [F,C]4 | %12
w: ||
 [F,C]2 [F,C]>[F,C] [F,A,]3 [F,E] | [B,,D]>[B,,C] [B,,D]>[B,,A,] [B,,B,]2 [B,,D]2 | %14
w: ||
 [F,A,]2 [G,B,]>[G,B,] [A,C]>[A,C] [B,D]>[B,D] | C2 [C,B,]2 [F,A,]4 |] %16
w: ||
V:4
 x8 | x8 | x8 | x8 | x8 | x8 | x8 | x8 | x8 | x8 | x8 | x8 | x8 | x8 | x8 | C2 x6 |] %16

